packages/foundations/assets/icons/functional/images/file/document_check_12.svg

<svg width="12" height="12" viewBox="0 0 12 12" fill="none" xmlns="http://www.w3.org/2000/svg">
<g clip-path="url(#clip0_232_225)">
<path fill-rule="evenodd" clip-rule="evenodd" d="M6.00001 1.2C6.15001 1.2 6.30001 1.2564 6.41221 1.3686L8.23141 3.1686C8.34361 3.2814 8.40001 3.4314 8.40001 3.6V4.2H5.98141C5.64361 4.2 5.38141 3.9372 5.38141 3.6V2.4H2.40001V9.6H4.80001V10.8H1.80001C1.46221 10.8 1.20001 10.5372 1.20001 10.2V1.8C1.20001 1.4622 1.46221 1.2 1.80001 1.2H6.00001ZM7.79995 4.8C9.44995 4.8 10.8 6.15 10.8 7.8C10.8 9.45 9.44995 10.8 7.79995 10.8C6.14995 10.8 4.79995 9.45 4.79995 7.8C4.79995 6.15 6.14995 4.8 7.79995 4.8ZM8.59427 6.83398L7.58183 7.8652L7.11715 7.38181L6.40465 8.09431L7.58183 9.27143L9.30683 7.54642L8.59427 6.83398Z" fill="#1A1C1F"/>
</g>
<defs>
<clipPath id="clip0_232_225">
<rect width="12" height="12" fill="white"/>
</clipPath>
</defs>
</svg>

<svg xmlns="http://www.w3.org/2000/svg" width="12" height="12" fill="none"><g clip-path="url(#a)"><path fill="#1A1C1F" fill-rule="evenodd" d="M6 1.2c.15 0 .3.056.412.169l1.82 1.8A.6.6 0 0 1 8.4 3.6v.6H5.981a.59.59 0 0 1-.6-.6V2.4H2.4v7.2h2.4v1.2h-3a.59.59 0 0 1-.6-.6V1.8c0-.338.262-.6.6-.6zm1.8 3.6c1.65 0 3 1.35 3 3s-1.35 3-3 3-3-1.35-3-3 1.35-3 3-3m.794 2.034L7.582 7.865l-.465-.483-.712.712 1.177 1.177 1.725-1.725z" clip-rule="evenodd"/></g><defs><clipPath id="a"><path fill="#fff" d="M0 0h12v12H0z"/></clipPath></defs></svg>
